public/cloud-icons/azure/ai/cognitive-services-bot.svg

<svg xmlns="http://www.w3.org/2000/svg" xml:space="preserve" width="56.688" height="56.698" style="font-size:12px;overflow:visible;color-interpolation-filters:sRGB;fill-rule:evenodd;stroke-linecap:square;stroke-miterlimit:3" viewBox="0 0 56.688 56.698"><g transform="translate(-5.67 -5.666)"><title>Page-1</title><g transform="translate(5.67 -34.016)"><title>Cognitive Services Bot.19970</title><g transform="translate(2.67 -2.657)"><title>Sheet.19971</title><path d="m0 45 51.37 51.38Z" style="fill:none"/><path d="m0 45 51.37 51.38" style="stroke:#50e6ff;stroke-width:.75;stroke-linecap:butt"/></g><g transform="translate(2.657 -2.657)"><title>Sheet.19972</title><path d="M0 96.38 51.38 45Z" style="fill:none"/><path d="M0 96.38 51.38 45" style="stroke:#50e6ff;stroke-width:.75;stroke-linecap:butt"/></g><g transform="translate(2.657 -28.36)"><title>Sheet.19973</title><path d="M0 96.38h51.38Z" style="fill:none"/><path d="M0 96.38h51.38" style="stroke:#50e6ff;stroke-width:.75;stroke-linecap:butt"/></g><g transform="translate(28.341 -2.658)"><title>Sheet.19974</title><path d="M0 44.94v51.44Z" style="fill:none"/><path d="M0 44.94v51.44" style="stroke:#50e6ff;stroke-width:.75;stroke-linecap:butt"/></g><g transform="translate(2.657 -2.657)"><title>Sheet.19975</title><path d="m0 96.38 51.38-25.7Z" style="fill:none"/><path d="m0 96.38 51.38-25.7" style="stroke:#50e6ff;stroke-width:.75;stroke-linecap:butt"/></g><g transform="translate(2.657 -2.657)"><title>Sheet.19976</title><path d="M51.38 96.38 0 70.68Z" style="fill:none"/><path d="M51.38 96.38 0 70.68" style="stroke:#50e6ff;stroke-width:.75;stroke-linecap:butt"/></g><g transform="translate(2.67 -28.36)"><title>Sheet.19977</title><path d="m0 70.7 51.37 25.68Z" style="fill:none"/><path d="m0 70.7 51.37 25.68" style="stroke:#50e6ff;stroke-width:.75;stroke-linecap:butt"/></g><g transform="translate(2.657 -28.36)"><title>Sheet.19978</title><path d="M51.38 70.7 0 96.38Z" style="fill:none"/><path d="M51.38 70.7 0 96.38" style="stroke:#50e6ff;stroke-width:.75;stroke-linecap:butt"/></g><g transform="translate(28.346 -28.36)"><title>Sheet.19979</title><path d="m0 70.7 25.69 25.68Z" style="fill:none"/><path d="m0 70.7 25.69 25.68" style="stroke:#50e6ff;stroke-width:.75;stroke-linecap:butt"/></g><g transform="translate(2.657 -28.36)"><title>Sheet.19980</title><path d="M25.68 70.64 0 96.38Z" style="fill:none"/><path d="M25.68 70.64 0 96.38" style="stroke:#50e6ff;stroke-width:.75;stroke-linecap:butt"/></g><g transform="translate(28.346 -2.657)"><title>Sheet.19981</title><path d="m0 96.38 25.69-25.7Z" style="fill:none"/><path d="m0 96.38 25.69-25.7" style="stroke:#50e6ff;stroke-width:.75;stroke-linecap:butt"/></g><g transform="translate(2.547 -2.658)"><title>Sheet.19982</title><path d="M25.8 96.38 0 70.63Z" style="fill:none"/><path d="M25.8 96.38 0 70.63" style="stroke:#50e6ff;stroke-width:.75;stroke-linecap:butt"/></g><g transform="translate(0 -51.378)"><title>Sheet.19983</title><path d="M5.31 93.72c0 1.47-1.19 2.66-2.65 2.66-1.47 0-2.66-1.19-2.66-2.66s1.19-2.66 2.66-2.66c1.46 0 2.65 1.19 2.65 2.66" style="fill:#50e6ff;stroke:none;stroke-width:.75;stroke-linecap:butt"/></g><g transform="translate(0 -25.702)"><title>Sheet.19984</title><path d="M5.31 93.72c0 1.47-1.19 2.66-2.65 2.66-1.47 0-2.66-1.19-2.66-2.66s1.19-2.66 2.66-2.66c1.46 0 2.65 1.19 2.65 2.66" style="fill:#0078d4;stroke:none;stroke-width:.75;stroke-linecap:butt"/></g><title>Sheet.19985</title><path d="M5.31 93.72c0 1.47-1.19 2.66-2.65 2.66-1.47 0-2.66-1.19-2.66-2.66s1.19-2.66 2.66-2.66c1.46 0 2.65 1.19 2.65 2.66" style="fill:#0078d4;stroke:none;stroke-width:.75;stroke-linecap:butt"/><g transform="translate(25.689 -51.378)"><title>Sheet.19986</title><path d="M5.31 93.72c0 1.47-1.19 2.66-2.65 2.66-1.47 0-2.66-1.19-2.66-2.66s1.19-2.66 2.66-2.66c1.46 0 2.65 1.19 2.65 2.66" style="fill:#0078d4;stroke:none;stroke-width:.75;stroke-linecap:butt"/></g><g transform="translate(25.689 -25.689)"><title>Sheet.19987</title><path d="M5.31 93.72c0 1.47-1.19 2.66-2.65 2.66-1.47 0-2.66-1.19-2.66-2.66s1.19-2.66 2.66-2.66c1.46 0 2.65 1.19 2.65 2.66" style="fill:#50e6ff;stroke:none;stroke-width:.75;stroke-linecap:butt"/></g><g transform="translate(25.689)"><title>Sheet.19988</title><path d="M5.31 93.72c0 1.47-1.19 2.66-2.65 2.66-1.47 0-2.66-1.19-2.66-2.66s1.19-2.66 2.66-2.66c1.46 0 2.65 1.19 2.65 2.66" style="fill:#0078d4;stroke:none;stroke-width:.75;stroke-linecap:butt"/></g><g transform="translate(51.378 -51.378)"><title>Sheet.19989</title><path d="M5.31 93.72c0 1.47-1.19 2.66-2.65 2.66-1.47 0-2.66-1.19-2.66-2.66s1.19-2.66 2.66-2.66c1.46 0 2.65 1.19 2.65 2.66" style="fill:#0078d4;stroke:none;stroke-width:.75;stroke-linecap:butt"/></g><g transform="translate(51.378 -25.702)"><title>Sheet.19990</title><path d="M5.31 93.72c0 1.47-1.19 2.66-2.65 2.66-1.47 0-2.66-1.19-2.66-2.66s1.19-2.66 2.66-2.66c1.46 0 2.65 1.19 2.65 2.66" style="fill:#0078d4;stroke:none;stroke-width:.75;stroke-linecap:butt"/></g><g transform="translate(51.378)"><title>Sheet.19991</title><path d="M5.31 93.72c0 1.47-1.19 2.66-2.65 2.66-1.47 0-2.66-1.19-2.66-2.66s1.19-2.66 2.66-2.66c1.46 0 2.65 1.19 2.65 2.66" style="fill:#50e6ff;stroke:none;stroke-width:.75;stroke-linecap:butt"/></g></g></g></svg>

<?xml version="1.0" encoding="UTF-8" standalone="no"?>
<!-- Generated by Microsoft Visio, SVG Export Cognitive Services Bot.svg Page-1 -->

<svg
   xmlns:dc="http://purl.org/dc/elements/1.1/"
   xmlns:cc="http://creativecommons.org/ns#"
   xmlns:rdf="http://www.w3.org/1999/02/22-rdf-syntax-ns#"
   xmlns:svg="http://www.w3.org/2000/svg"
   xmlns="http://www.w3.org/2000/svg"
   xmlns:sodipodi="http://sodipodi.sourceforge.net/DTD/sodipodi-0.dtd"
   xmlns:inkscape="http://www.inkscape.org/namespaces/inkscape"
   width="56.688"
   height="56.698002"
   viewBox="0 0 56.687998 56.698003"
   xml:space="preserve"
   class="st5"
   version="1.1"
   id="svg140"
   sodipodi:docname="Cognitive Services Bot.svg"
   style="font-size:12px;overflow:visible;color-interpolation-filters:sRGB;fill:none;fill-rule:evenodd;stroke-linecap:square;stroke-miterlimit:3"
   inkscape:version="0.92.5 (2060ec1f9f, 2020-04-08)"><metadata
   id="metadata146"><rdf:RDF><cc:Work
       rdf:about=""><dc:format>image/svg+xml</dc:format><dc:type
         rdf:resource="http://purl.org/dc/dcmitype/StillImage" /></cc:Work></rdf:RDF></metadata><defs
   id="defs144" /><sodipodi:namedview
   pagecolor="#ffffff"
   bordercolor="#666666"
   borderopacity="1"
   objecttolerance="10"
   gridtolerance="10"
   guidetolerance="10"
   inkscape:pageopacity="0"
   inkscape:pageshadow="2"
   inkscape:window-width="640"
   inkscape:window-height="480"
   id="namedview142"
   showgrid="false"
   inkscape:zoom="2.4486917"
   inkscape:cx="28.346461"
   inkscape:cy="14.175301"
   inkscape:window-x="0"
   inkscape:window-y="0"
   inkscape:window-maximized="0"
   inkscape:current-layer="svg140" />
	<style
   type="text/css"
   id="style2">
	<![CDATA[
		.st1 {fill:none}
		.st2 {stroke:#50e6ff;stroke-linecap:butt;stroke-width:0.75}
		.st3 {fill:#50e6ff;stroke:none;stroke-linecap:butt;stroke-width:0.75}
		.st4 {fill:#0078d4;stroke:none;stroke-linecap:butt;stroke-width:0.75}
		.st5 {fill:none;fill-rule:evenodd;font-size:12px;overflow:visible;stroke-linecap:square;stroke-miterlimit:3}
	]]>
	</style>

	<g
   id="g138"
   transform="translate(-5.66929,-5.6663)">
		<title
   id="title4">Page-1</title>
		<g
   id="group19970-1"
   transform="translate(5.66929,-34.0157)">
			<title
   id="title6">Cognitive Services Bot.19970</title>
			<g
   id="shape19971-2"
   transform="translate(2.66959,-2.65748)">
				<title
   id="title8">Sheet.19971</title>
				<path
   d="M 0,45 51.37,96.38 Z"
   class="st1"
   id="path10"
   inkscape:connector-curvature="0"
   style="fill:none" />
				<path
   d="M 0,45 51.37,96.38"
   class="st2"
   id="path12"
   inkscape:connector-curvature="0"
   style="stroke:#50e6ff;stroke-width:0.75;stroke-linecap:butt" />
			</g>
			<g
   id="shape19972-5"
   transform="translate(2.65748,-2.65748)">
				<title
   id="title15">Sheet.19972</title>
				<path
   d="M 0,96.38 51.38,45 Z"
   class="st1"
   id="path17"
   inkscape:connector-curvature="0"
   style="fill:none" />
				<path
   d="M 0,96.38 51.38,45"
   class="st2"
   id="path19"
   inkscape:connector-curvature="0"
   style="stroke:#50e6ff;stroke-width:0.75;stroke-linecap:butt" />
			</g>
			<g
   id="shape19973-8"
   transform="translate(2.65748,-28.3597)">
				<title
   id="title22">Sheet.19973</title>
				<path
   d="M 0,96.38 H 51.38 Z"
   class="st1"
   id="path24"
   inkscape:connector-curvature="0"
   style="fill:none" />
				<path
   d="M 0,96.38 H 51.38"
   class="st2"
   id="path26"
   inkscape:connector-curvature="0"
   style="stroke:#50e6ff;stroke-width:0.75;stroke-linecap:butt" />
			</g>
			<g
   id="shape19974-11"
   transform="translate(28.3414,-2.6576)">
				<title
   id="title29">Sheet.19974</title>
				<path
   d="M 0,44.94 V 96.38 Z"
   class="st1"
   id="path31"
   inkscape:connector-curvature="0"
   style="fill:none" />
				<path
   d="M 0,44.94 V 96.38"
   class="st2"
   id="path33"
   inkscape:connector-curvature="0"
   style="stroke:#50e6ff;stroke-width:0.75;stroke-linecap:butt" />
			</g>
			<g
   id="shape19975-14"
   transform="translate(2.65748,-2.65748)">
				<title
   id="title36">Sheet.19975</title>
				<path
   d="M 0,96.38 51.38,70.68 Z"
   class="st1"
   id="path38"
   inkscape:connector-curvature="0"
   style="fill:none" />
				<path
   d="M 0,96.38 51.38,70.68"
   class="st2"
   id="path40"
   inkscape:connector-curvature="0"
   style="stroke:#50e6ff;stroke-width:0.75;stroke-linecap:butt" />
			</g>
			<g
   id="shape19976-17"
   transform="translate(2.65748,-2.65748)">
				<title
   id="title43">Sheet.19976</title>
				<path
   d="M 51.38,96.38 0,70.68 Z"
   class="st1"
   id="path45"
   inkscape:connector-curvature="0"
   style="fill:none" />
				<path
   d="M 51.38,96.38 0,70.68"
   class="st2"
   id="path47"
   inkscape:connector-curvature="0"
   style="stroke:#50e6ff;stroke-width:0.75;stroke-linecap:butt" />
			</g>
			<g
   id="shape19977-20"
   transform="translate(2.66959,-28.3597)">
				<title
   id="title50">Sheet.19977</title>
				<path
   d="M 0,70.7 51.37,96.38 Z"
   class="st1"
   id="path52"
   inkscape:connector-curvature="0"
   style="fill:none" />
				<path
   d="M 0,70.7 51.37,96.38"
   class="st2"
   id="path54"
   inkscape:connector-curvature="0"
   style="stroke:#50e6ff;stroke-width:0.75;stroke-linecap:butt" />
			</g>
			<g
   id="shape19978-23"
   transform="translate(2.65748,-28.3597)">
				<title
   id="title57">Sheet.19978</title>
				<path
   d="M 51.38,70.7 0,96.38 Z"
   class="st1"
   id="path59"
   inkscape:connector-curvature="0"
   style="fill:none" />
				<path
   d="M 51.38,70.7 0,96.38"
   class="st2"
   id="path61"
   inkscape:connector-curvature="0"
   style="stroke:#50e6ff;stroke-width:0.75;stroke-linecap:butt" />
			</g>
			<g
   id="shape19979-26"
   transform="translate(28.3465,-28.3597)">
				<title
   id="title64">Sheet.19979</title>
				<path
   d="M 0,70.7 25.69,96.38 Z"
   class="st1"
   id="path66"
   inkscape:connector-curvature="0"
   style="fill:none" />
				<path
   d="M 0,70.7 25.69,96.38"
   class="st2"
   id="path68"
   inkscape:connector-curvature="0"
   style="stroke:#50e6ff;stroke-width:0.75;stroke-linecap:butt" />
			</g>
			<g
   id="shape19980-29"
   transform="translate(2.65748,-28.3599)">
				<title
   id="title71">Sheet.19980</title>
				<path
   d="M 25.68,70.64 0,96.38 Z"
   class="st1"
   id="path73"
   inkscape:connector-curvature="0"
   style="fill:none" />
				<path
   d="M 25.68,70.64 0,96.38"
   class="st2"
   id="path75"
   inkscape:connector-curvature="0"
   style="stroke:#50e6ff;stroke-width:0.75;stroke-linecap:butt" />
			</g>
			<g
   id="shape19981-32"
   transform="translate(28.3465,-2.65748)">
				<title
   id="title78">Sheet.19981</title>
				<path
   d="M 0,96.38 25.69,70.68 Z"
   class="st1"
   id="path80"
   inkscape:connector-curvature="0"
   style="fill:none" />
				<path
   d="M 0,96.38 25.69,70.68"
   class="st2"
   id="path82"
   inkscape:connector-curvature="0"
   style="stroke:#50e6ff;stroke-width:0.75;stroke-linecap:butt" />
			</g>
			<g
   id="shape19982-35"
   transform="translate(2.54675,-2.6576)">
				<title
   id="title85">Sheet.19982</title>
				<path
   d="M 25.8,96.38 0,70.63 Z"
   class="st1"
   id="path87"
   inkscape:connector-curvature="0"
   style="fill:none" />
				<path
   d="M 25.8,96.38 0,70.63"
   class="st2"
   id="path89"
   inkscape:connector-curvature="0"
   style="stroke:#50e6ff;stroke-width:0.75;stroke-linecap:butt" />
			</g>
			<g
   id="shape19983-38"
   transform="translate(0,-51.378)">
				<title
   id="title92">Sheet.19983</title>
				<path
   d="m 5.31,93.72 c 0,1.47 -1.19,2.66 -2.65,2.66 C 1.19,96.38 0,95.19 0,93.72 c 0,-1.47 1.19,-2.66 2.66,-2.66 1.46,0 2.65,1.19 2.65,2.66 z"
   class="st3"
   id="path94"
   inkscape:connector-curvature="0"
   style="fill:#50e6ff;stroke:none;stroke-width:0.75;stroke-linecap:butt" />
			</g>
			<g
   id="shape19984-40"
   transform="translate(0,-25.7022)">
				<title
   id="title97">Sheet.19984</title>
				<path
   d="m 5.31,93.72 c 0,1.47 -1.19,2.66 -2.65,2.66 C 1.19,96.38 0,95.19 0,93.72 c 0,-1.47 1.19,-2.66 2.66,-2.66 1.46,0 2.65,1.19 2.65,2.66 z"
   class="st4"
   id="path99"
   inkscape:connector-curvature="0"
   style="fill:#0078d4;stroke:none;stroke-width:0.75;stroke-linecap:butt" />
			</g>
			<g
   id="shape19985-42">
				<title
   id="title102">Sheet.19985</title>
				<path
   d="m 5.31,93.72 c 0,1.47 -1.19,2.66 -2.65,2.66 C 1.19,96.38 0,95.19 0,93.72 c 0,-1.47 1.19,-2.66 2.66,-2.66 1.46,0 2.65,1.19 2.65,2.66 z"
   class="st4"
   id="path104"
   inkscape:connector-curvature="0"
   style="fill:#0078d4;stroke:none;stroke-width:0.75;stroke-linecap:butt" />
			</g>
			<g
   id="shape19986-44"
   transform="translate(25.689,-51.378)">
				<title
   id="title107">Sheet.19986</title>
				<path
   d="m 5.31,93.72 c 0,1.47 -1.19,2.66 -2.65,2.66 C 1.19,96.38 0,95.19 0,93.72 c 0,-1.47 1.19,-2.66 2.66,-2.66 1.46,0 2.65,1.19 2.65,2.66 z"
   class="st4"
   id="path109"
   inkscape:connector-curvature="0"
   style="fill:#0078d4;stroke:none;stroke-width:0.75;stroke-linecap:butt" />
			</g>
			<g
   id="shape19987-46"
   transform="translate(25.689,-25.689)">
				<title
   id="title112">Sheet.19987</title>
				<path
   d="m 5.31,93.72 c 0,1.47 -1.19,2.66 -2.65,2.66 C 1.19,96.38 0,95.19 0,93.72 c 0,-1.47 1.19,-2.66 2.66,-2.66 1.46,0 2.65,1.19 2.65,2.66 z"
   class="st3"
   id="path114"
   inkscape:connector-curvature="0"
   style="fill:#50e6ff;stroke:none;stroke-width:0.75;stroke-linecap:butt" />
			</g>
			<g
   id="shape19988-48"
   transform="translate(25.689)">
				<title
   id="title117">Sheet.19988</title>
				<path
   d="m 5.31,93.72 c 0,1.47 -1.19,2.66 -2.65,2.66 C 1.19,96.38 0,95.19 0,93.72 c 0,-1.47 1.19,-2.66 2.66,-2.66 1.46,0 2.65,1.19 2.65,2.66 z"
   class="st4"
   id="path119"
   inkscape:connector-curvature="0"
   style="fill:#0078d4;stroke:none;stroke-width:0.75;stroke-linecap:butt" />
			</g>
			<g
   id="shape19989-50"
   transform="translate(51.378,-51.378)">
				<title
   id="title122">Sheet.19989</title>
				<path
   d="m 5.31,93.72 c 0,1.47 -1.19,2.66 -2.65,2.66 C 1.19,96.38 0,95.19 0,93.72 c 0,-1.47 1.19,-2.66 2.66,-2.66 1.46,0 2.65,1.19 2.65,2.66 z"
   class="st4"
   id="path124"
   inkscape:connector-curvature="0"
   style="fill:#0078d4;stroke:none;stroke-width:0.75;stroke-linecap:butt" />
			</g>
			<g
   id="shape19990-52"
   transform="translate(51.378,-25.7022)">
				<title
   id="title127">Sheet.19990</title>
				<path
   d="m 5.31,93.72 c 0,1.47 -1.19,2.66 -2.65,2.66 C 1.19,96.38 0,95.19 0,93.72 c 0,-1.47 1.19,-2.66 2.66,-2.66 1.46,0 2.65,1.19 2.65,2.66 z"
   class="st4"
   id="path129"
   inkscape:connector-curvature="0"
   style="fill:#0078d4;stroke:none;stroke-width:0.75;stroke-linecap:butt" />
			</g>
			<g
   id="shape19991-54"
   transform="translate(51.378)">
				<title
   id="title132">Sheet.19991</title>
				<path
   d="m 5.31,93.72 c 0,1.47 -1.19,2.66 -2.65,2.66 C 1.19,96.38 0,95.19 0,93.72 c 0,-1.47 1.19,-2.66 2.66,-2.66 1.46,0 2.65,1.19 2.65,2.66 z"
   class="st3"
   id="path134"
   inkscape:connector-curvature="0"
   style="fill:#50e6ff;stroke:none;stroke-width:0.75;stroke-linecap:butt" />
			</g>
		</g>
	</g>
</svg>
